public/footer/Vkontakte.svg

<svg width="21" height="12" viewBox="0 0 21 12" fill="none" xmlns="http://www.w3.org/2000/svg">
<path fill-rule="evenodd" clip-rule="evenodd" d="M10.688 11.6094H11.88C12.0827 11.5864 12.2737 11.5028 12.428 11.3694C12.537 11.2159 12.5944 11.0317 12.592 10.8434C12.592 10.8434 12.568 9.23702 13.312 9.00022C14.048 8.76702 14.988 10.553 15.988 11.2402C16.3632 11.539 16.8379 11.684 17.316 11.6458L19.988 11.6086C19.988 11.6086 21.384 11.5222 20.724 10.4222C20.668 10.3322 20.336 9.60822 18.736 8.12062C17.06 6.56382 17.288 6.81582 19.304 4.12062C20.532 2.48062 21.024 1.48062 20.872 1.05062C20.724 0.642218 19.82 0.749819 19.82 0.749819L16.812 0.768619C16.6787 0.752632 16.5437 0.77643 16.424 0.837018C16.3105 0.921127 16.2197 1.03221 16.16 1.16022C15.8485 1.96967 15.4767 2.75467 15.048 3.50862C13.708 5.78582 13.172 5.90662 12.956 5.76502C12.444 5.43502 12.572 4.44102 12.572 3.73462C12.572 1.52742 12.908 0.607019 11.92 0.369019C11.4607 0.257619 10.9882 0.210503 10.516 0.229019C9.44399 0.218219 8.53599 0.232219 8.02399 0.485019C7.67999 0.652619 7.41599 1.02662 7.57599 1.04822C7.91808 1.07867 8.23567 1.23846 8.46399 1.49502C8.6724 1.91845 8.77533 2.38601 8.76399 2.85782C8.76399 2.85782 8.93999 5.45782 8.34799 5.77782C7.94399 5.99902 7.38799 5.54742 6.19199 3.48102C5.78668 2.7624 5.42859 2.01816 5.11999 1.25302C5.06534 1.12293 4.9803 1.00785 4.87199 0.917418C4.73162 0.824279 4.57374 0.76072 4.40799 0.730619L1.55199 0.749419C1.3395 0.750629 1.13315 0.820816 0.963988 0.949419C0.926695 1.02897 0.906698 1.11552 0.905319 1.20336C0.90394 1.2912 0.92121 1.37834 0.955988 1.45902C0.955988 1.45902 3.19199 6.70142 5.72399 9.34342C8.04799 11.7658 10.688 11.607 10.688 11.607V11.6094Z" fill="white"/>
</svg>

<svg width="21" height="12" fill="none" xmlns="http://www.w3.org/2000/svg"><path fill-rule="evenodd" clip-rule="evenodd" d="M10.688 11.61h1.192c.203-.024.394-.107.548-.24a.889.889 0 0 0 .164-.527s-.024-1.606.72-1.843c.736-.233 1.676 1.553 2.676 2.24.375.299.85.444 1.328.406l2.672-.037s1.396-.087.736-1.187c-.056-.09-.388-.814-1.988-2.301-1.676-1.557-1.448-1.305.568-4 1.228-1.64 1.72-2.64 1.568-3.07C20.724.642 19.82.75 19.82.75l-3.008.019a.68.68 0 0 0-.388.068.849.849 0 0 0-.264.323 17.38 17.38 0 0 1-1.112 2.349c-1.34 2.277-1.876 2.398-2.092 2.256-.512-.33-.384-1.324-.384-2.03 0-2.208.336-3.128-.652-3.366a5.107 5.107 0 0 0-1.404-.14c-1.072-.01-1.98.003-2.492.256-.344.168-.608.542-.448.563.342.03.66.19.888.447.208.423.311.891.3 1.363 0 0 .176 2.6-.416 2.92-.404.221-.96-.23-2.156-2.297A19.008 19.008 0 0 1 5.12 1.253a.882.882 0 0 0-.248-.336 1.24 1.24 0 0 0-.464-.186L1.552.749a.98.98 0 0 0-.588.2.621.621 0 0 0-.008.51s2.236 5.242 4.768 7.884c2.324 2.423 4.964 2.264 4.964 2.264v.002Z" fill="#fff"/></svg>
